!!!OTL: 'S KAM EIN JUNGER SCHLEIFER HER, SCHLIFF DIE MESSER UND DIE SCHEER
!!!ARE: Europa, Mitteleuropa, Deutschland
!!!SCT: Z0223
!!!YEM: Copyright 1995, estate of Helmut Schaffrath.
**kern
*ICvox
*Ivox
*M4/4
*k[b-]
*F:
=1
{8ff
8ee
8ff
8ee
8ff
8cc
4cc
=2
8b-
8g
8g
8g
8a
8f
4f}
=3
{4a
4g
4a
4g
=4
8a
16g
16g
8g
8g
4.g}
{8g
=5
8a
8g
8g
8g
8a
8g
8g
16g
16g
=6
8a
8f
8f
16g
16g
8a
8f
16f}
{16g
16a
16b-
=7
8cc
8cc
16f
16g
16a
16cc
16cc
16b-
16a
16g
4f}
=8
{16ff
16ee
16ff
16ff
16ee
16dd
16ee
16ee
16dd
16cc
16dd
16dd
4b-
=9
16b-
16a
16b-
16b-
16cc
16g
16cc
16cc
16g
16f
16g
16g
4f}
==
!!!AGN: Scherenschleifer -, Handwerker - Lied
!! Takt 3,4,8,9 werden gepfiffen.
!!!ONB: ESAC (Essen Associative Code) Database: ZUCCAL
!!!AMT: simple quadruple
!!!AIN: vox
!!!EED: Helmut Schaffrath
!!!EEV: 1.0
*-
